public/flags/AE.svg

<svg fill="none" height="53" viewBox="0 0 61 53" width="61" xmlns="http://www.w3.org/2000/svg" xmlns:xlink="http://www.w3.org/1999/xlink"><mask id="a" height="43" maskUnits="userSpaceOnUse" width="59" x="1" y="3"><rect fill="#fff" height="41.4393" rx="3.7125" stroke="#fff" stroke-width="1.06071" width="57.9393" x="1.53036" y="3.53036"/></mask><rect fill="#fff" height="41.4393" rx="3.7125" stroke="#f5f5f5" stroke-width="1.06071" width="57.9393" x="1.53036" y="3.53036"/><g clip-rule="evenodd" fill-rule="evenodd" mask="url(#a)"><path d="m17.8572 17.1667h42.1428v-14.1667h-42.1428z" fill="#12833b"/><path d="m17.8572 45.5h42.1428v-14.1667h-42.1428z" fill="#262626"/><path d="m1 45.5h16.8571v-42.5h-16.8571z" fill="#ff323e"/></g></svg>

<svg width="61" height="53" viewBox="0 0 61 53" fill="none" xmlns="http://www.w3.org/2000/svg">
<rect x="1.53036" y="3.53036" width="57.9393" height="41.4393" rx="3.7125" fill="white" stroke="#F5F5F5" stroke-width="1.06071"/>
<mask id="mask0" mask-type="alpha" maskUnits="userSpaceOnUse" x="1" y="3" width="59" height="43">
<rect x="1.53036" y="3.53036" width="57.9393" height="41.4393" rx="3.7125" fill="white" stroke="white" stroke-width="1.06071"/>
</mask>
<g mask="url(#mask0)">
<path fill-rule="evenodd" clip-rule="evenodd" d="M17.8572 17.1667H60V3H17.8572V17.1667Z" fill="#12833B"/>
<path fill-rule="evenodd" clip-rule="evenodd" d="M17.8572 45.5H60V31.3333H17.8572V45.5Z" fill="#262626"/>
<path fill-rule="evenodd" clip-rule="evenodd" d="M1 45.5H17.8571V3H1V45.5Z" fill="#FF323E"/>
</g>
</svg>
